X: 7891
T: Con Cassidy's
R: hornpipe
M: 4/4
K: Dmajor
|:c3/2A<eA/ c<e A>c|BE E/E/E G3/2A/ B>d|c3/2A<eA/ c<e A>g|f<d f>a g3/2f/ e>d:|
B/c/d e>f gg gd|B<G B>c d3/2f/ e/d3/2|B/c/d e>f g3/2f/ g>d|f3/2a<fd<gf/ e>d|
B/c/d e>f gg ge|d3/2B<GB<dg/ f>g|a3/2g/ f/g/a g3/2f/ e>^d|e3/2b<af<gf/ e>=d:|

